svgs/sharp-solid/camera-polaroid.svg

<svg xmlns="http://www.w3.org/2000/svg" viewBox="0 0 576 512"><!--! Font Awesome Pro 6.6.0 by @fontawesome - https://fontawesome.com License - https://fontawesome.com/license (Commercial License) Copyright 2024 Fonticons, Inc. --><path d="M64 32l32 0 384 0 32 0 0 32 0 182.3 58.6 87.9 5.4 8.1 0 9.7 0 96 0 32-32 0L32 480 0 480l0-32 0-96 0-9.7 5.4-8.1L64 246.3 64 64l0-32zM288 256a64 64 0 1 0 0-128 64 64 0 1 0 0 128zM384 96l0 64 64 0 0-64-64 0zM112 384l-16 0 0 32 16 0 352 0 16 0 0-32-16 0-352 0z"/></svg>

<svg xmlns="http://www.w3.org/2000/svg" viewBox="0 0 576 512"><!--! Font Awesome Pro 6.4.0 by @fontawesome - https://fontawesome.com License - https://fontawesome.com/license (Commercial License) Copyright 2023 Fonticons, Inc. --><path d="M64 32H96 480h32V64 246.3l58.6 87.9 5.4 8.1V352v96 32H544 32 0V448 352v-9.7l5.4-8.1L64 246.3V64 32zM288 256a64 64 0 1 0 0-128 64 64 0 1 0 0 128zM384 96v64h64V96H384zM112 384H96v32h16H464h16V384H464 112z"/></svg>
